assets/Pig face/Flat/pig_face_flat.svg

<svg width="32" height="32" viewBox="0 0 32 32" fill="none" xmlns="http://www.w3.org/2000/svg">
<path d="M3 17C3 10.3726 8.37258 5 15 5H16.9978C23.6252 5 28.9978 10.3726 28.9978 17V18C28.9978 24.6274 23.6252 30 16.9978 30H15C8.37259 30 3 24.6274 3 18V17Z" fill="#FF8687"/>
<path d="M26.3793 5.63364L29.4236 8.96525C30.1921 9.80624 30.1921 11.1863 29.4236 12.0273L26.3793 15.3589C25.1281 16.7282 23 15.7579 23 13.8279V7.17545C23 5.24549 25.1379 4.27512 26.3793 5.63364Z" fill="#FBB8AB"/>
<path d="M5.62069 5.63302L2.57635 8.97214C1.80788 9.81231 1.80788 11.191 2.57635 12.0312L5.62069 15.3596C6.87192 16.7275 9 15.7581 9 13.83V7.17332C9 5.24525 6.87192 4.27583 5.62069 5.63302Z" fill="#FBB8AB"/>
<path d="M14 19C12.3431 19 11 20.3431 11 22C11 23.6569 12.3431 25 14 25H18C19.6569 25 21 23.6569 21 22C21 20.3431 19.6569 19 18 19H14Z" fill="#FBB8AB"/>
<path d="M15 22C15 22.5523 14.5523 23 14 23C13.4477 23 13 22.5523 13 22C13 21.4477 13.4477 21 14 21C14.5523 21 15 21.4477 15 22Z" fill="#F92F60"/>
<path d="M19 22C19 22.5523 18.5523 23 18 23C17.4477 23 17 22.5523 17 22C17 21.4477 17.4477 21 18 21C18.5523 21 19 21.4477 19 22Z" fill="#F92F60"/>
<path d="M11 16C11 16.55 11.45 17 12 17C12.55 17 13 16.55 13 16V15C13 14.45 12.55 14 12 14C11.45 14 11 14.45 11 15V16Z" fill="#1C1C1C"/>
<path d="M19 16C19 16.55 19.45 17 20 17C20.55 17 21 16.55 21 16V15C21 14.45 20.55 14 20 14C19.45 14 19 14.45 19 15V16Z" fill="#1C1C1C"/>
</svg>

<svg xmlns="http://www.w3.org/2000/svg" width="32" height="32" fill="none"><path fill="#FF8687" d="M3 17C3 10.373 8.373 5 15 5h1.998c6.627 0 12 5.373 12 12v1c0 6.627-5.373 12-12 12H15C8.373 30 3 24.627 3 18v-1Z"/><path fill="#FBB8AB" d="m26.38 5.634 3.044 3.331c.768.841.768 2.221 0 3.062l-3.045 3.332c-1.25 1.37-3.379.399-3.379-1.531V7.175c0-1.93 2.138-2.9 3.38-1.541ZM5.62 5.633l-3.044 3.34c-.768.84-.768 2.218 0 3.058l3.045 3.329C6.87 16.727 9 15.758 9 13.83V7.173c0-1.928-2.128-2.897-3.38-1.54ZM14 19a3 3 0 1 0 0 6h4a3 3 0 1 0 0-6h-4Z"/><path fill="#F92F60" d="M15 22a1 1 0 1 1-2 0 1 1 0 0 1 2 0ZM19 22a1 1 0 1 1-2 0 1 1 0 0 1 2 0Z"/><path fill="#1C1C1C" d="M11 16c0 .55.45 1 1 1s1-.45 1-1v-1c0-.55-.45-1-1-1s-1 .45-1 1v1ZM19 16c0 .55.45 1 1 1s1-.45 1-1v-1c0-.55-.45-1-1-1s-1 .45-1 1v1Z"/></svg>
